X:1
T:Das Klinget So Herrlich (from the Magic Flute) Clarinet
T:Das Klinget So Herrlich (from the Magic Flute) Clarinet
T:Wolfgang Amadeus Mozart
C:Wolfgang Amadeus Mozart
%%score 1 2
L:1/8
Q:1/4=140
M:4/4
K:C
V:1 bass nm="Violoncello" snm="Vc."
V:2 bass transpose=-12 nm="Kontrabass" snm="Kb."
V:1
 G,F, | E,2 E,2 z2 E,2 | F,2 F,2 z2 F,E, | D,2 D,2 z2 D,2 | E,4 z2 E,F, | G,4 G,2 G,2 | %6
 A,3 B, C2 F,2 | E,4 D,2 D,2 | C,4 z2 F,E, | D,2 D,2 z2 D,2 | E,2 E,2 z2 E,2 | F,4 F,2 G,2 | %12
 E,4 z2 E,F, | G,4 G,2 G,2 | A,3 B, C2 F,2 | E,4 D,2 D,2 | C,4 z2 G,2 | G,4 A,2 B,2 | C4 z2 G,2 | %19
 G,4 F,2 D,2 | C,4 z4 |] %21
V:2
 z2 | C,2 G,,2 C,2 G,,2 | D,2 G,,2 D,2 G,,2 | B,,2 G,,2 B,,2 G,,2 | C,2 G,,2 C,4 | %5
 E,,2 C,2 E,,2 C,2 | F,,2 C,2 A,,4 | C,2 G,,2 B,,2 G,,2 | E,,2 G,,2 E,,4 | B,,2 G,,2 B,,2 G,,2 | %10
 C,2 G,,2 C,2 G,,2 | D,2 G,,2 B,,2 G,,2 | C,2 G,,2 C,4 | E,,2 C,2 E,,2 C,2 | F,,2 C,2 A,,4 | %15
 C,2 G,,2 B,,2 G,,2 | E,,2 G,,2 C,2 E,2 | F,2 D,2 F,2 D,2 | E,2 G,2 E,2 C,2 | B,,2 D,2 B,,2 F,,2 | %20
 E,,2 G,,2 E,,4 |] %21

